X:7
T:Hillside Echoes
R:marching air
D:Joe Cormier, The Dances Down Home
Z:Paul Stewart Cranford (P.S.C.), <http://www.cranfordpub.com>
L:1/8
Q:244
M:C|
K:Eb
GF|E3 B, G,>B,E<G|B3 G E2 B,2|C<A,F>G A>GF>E|D_AG<F|
E3 B, G,>B,E<G|B<Ge>B G>EB,>G,|A,<CF>E D<cB<D|E4 E2:|
|:a2|g3 e B>EG<E|A>GF>E Ggf<e g<eB<G|A2 F2 F2 GA|
B3 c B2 cd|e>BG<e c>BA<G|A<CF>E D<cB<D|E4 E2:|
